src/home/img/additional-users.svg

<svg height="78" viewBox="0 0 77 78" width="77" xmlns="http://www.w3.org/2000/svg" xmlns:xlink="http://www.w3.org/1999/xlink"><linearGradient id="a" x1="0%" x2="0%" y1="0%" y2="105.733%"><stop offset="0" stop-color="#3c3f4a"/><stop offset="1" stop-color="#2a2f45"/></linearGradient><filter id="b" height="107.4%" width="107.4%" x="-3.7%" y="-3.7%"><feGaussianBlur in="SourceGraphic" stdDeviation=".65"/></filter><linearGradient id="c" x1="0%" x2="0%" y1="0%" y2="105.733%"><stop offset="0" stop-color="#2a2f45"/><stop offset=".99285" stop-color="#1a1f36"/></linearGradient><linearGradient id="d"><stop offset="0" stop-color="#fff"/><stop offset="1" stop-color="#aec3eb"/></linearGradient><radialGradient id="e" cx="43.055%" cy="18.188%" gradientTransform="matrix(.19435 .97148 -.7963 .2371 .492 -.28)" r="105.675%" xlink:href="#d"/><filter id="f" height="107.8%" width="106.4%" x="-3.2%" y="-3.9%"><feGaussianBlur in="SourceGraphic" stdDeviation=".65"/></filter><radialGradient id="g" cx="32.053%" cy="0%" gradientTransform="matrix(0 1 -.81967 0 .32 -.32)" r="136.287%" xlink:href="#d"/><mask id="h" fill="#fff"><path d="m.5 13.84c0-7.367 5.973-13.34 13.34-13.34h48.32c7.367 0 13.34 5.973 13.34 13.34v48.32c0 7.367-5.973 13.34-13.34 13.34h-48.32c-7.367 0-13.34-5.973-13.34-13.34z" fill="#fff" fill-rule="evenodd"/></mask><g fill="none" fill-rule="evenodd" transform="translate(-6)"><path d="m.5 13.84c0-7.367 5.973-13.34 13.34-13.34h48.32c7.367 0 13.34 5.973 13.34 13.34v48.32c0 7.367-5.973 13.34-13.34 13.34h-48.32c-7.367 0-13.34-5.973-13.34-13.34z" mask="url(#h)"/><path d="m.5 13.84c0-7.367 5.973-13.34 13.34-13.34h48.32c7.367 0 13.34 5.973 13.34 13.34v48.32c0 7.367-5.973 13.34-13.34 13.34h-48.32c-7.367 0-13.34-5.973-13.34-13.34z"/><path d="m.5 13.84c0-7.367 5.973-13.34 13.34-13.34h48.32c7.367 0 13.34 5.973 13.34 13.34v48.32c0 7.367-5.973 13.34-13.34 13.34h-48.32c-7.367 0-13.34-5.973-13.34-13.34z"/><g fill-rule="nonzero" transform="translate(7 1)"><path d="m37.5 75.5c20.7106781 0 37.5-16.7893219 37.5-37.5s-16.7893219-37.5-37.5-37.5-37.5 16.7893219-37.5 37.5c.01938149 20.7026447 16.7973553 37.4806185 37.5 37.5z" fill="url(#a)" filter="url(#b)" stroke="#fff" stroke-opacity=".01" stroke-width="1.68"/><path d="m37.5 75.5c20.7106781 0 37.5-16.7893219 37.5-37.5s-16.7893219-37.5-37.5-37.5-37.5 16.7893219-37.5 37.5c.01938149 20.7026447 16.7973553 37.4806185 37.5 37.5z" fill="url(#c)" stroke="#fff" stroke-opacity=".01" stroke-width="1.68"/><g transform="translate(7 11)"><path d="m28.5735681 28.1818182c2.3703146 1.1363636 4.9787947 1.8181818 7.7687342 1.8181818 1.6160225-.0094781 3.2227729-.2454782 4.7735186-.7011364-.6997531 1.9318182-1.1443289 3.9852273-1.1443289 6.1556819 0 5.9693181 2.923766 11.228409 7.3717916 14.5454545h-27.3323349c-3.0065192 0-5.4437845-2.4420832-5.4437845-5.4545455v-3.2727272c.0018781-7.2291298 5.8502149-13.0890273 13.0650829-13.0909091zm26.2809095 0c.3768841 0 .6824091.3050696.6824091.681392v4.7735796h4.7807043c.1809861 0 .3545595.0717893.482536.1995751s.199873.3011005.199873.4818169v4.0909091c0 .3763224-.3055249.6813921-.682409.6813921h-4.7807043v4.7735795c0 .3763224-.305525.681392-.6824091.681392h-4.0970149c-.3768841 0-.6824091-.3050696-.6824091-.681392v-4.7735795h-4.7807043c-.3768841 0-.682409-.3050697-.682409-.6813921v-4.0909091c0-.3763224.3055249-.681392.682409-.681392h4.7807043v-4.7735796c0-.1807164.0718965-.3540311.199873-.4818169s.30155-.1995751.4825361-.1995751zm-40.716502-3.6363637c1.8670447-.002078 3.6586085.7580883 4.9814274 2.1136401-4.5377578 2.5434796-7.623496 7.1619535-8.3060607 12.4318145h-7.27884839c-1.95204709 0-3.53449391-1.628055-3.53449391-3.6363626v-3.6363625c.00365353-4.0150572 3.16640799-7.2689664 7.06898782-7.2727295zm21.369488-24.5454545c7.0395693 0 12.7462677 5.69819368 12.7462677 12.7272718 0 7.0290781-5.7066984 12.7272737-12.7462677 12.7272737-3.3810758.0018082-6.6241922-1.3385157-9.0149742-3.7257347-2.3907819-2.3872189-3.7331063-5.6255021-3.7312954-9.001539 0-7.02907812 5.7067003-12.7272718 12.7462696-12.7272718zm-25.4925382 7.27272727c4.0226113 0 7.2835821 3.25611093 7.2835821 7.27272723 0 4.0166164-3.2609708 7.2727273-7.2835821 7.2727273-4.02105102-.0037588-7.27981767-3.2576689-7.28358212-7.2727273 0-4.0166163 3.26097078-7.27272723 7.28358212-7.27272723z" fill="url(#e)" filter="url(#f)"/><path d="m28.5735681 28.1818182c2.3703146 1.1363636 4.9787947 1.8181818 7.7687342 1.8181818 1.6160225-.0094781 3.2227729-.2454782 4.7735186-.7011364-.6997531 1.9318182-1.1443289 3.9852273-1.1443289 6.1556819 0 5.9693181 2.923766 11.228409 7.3717916 14.5454545h-27.3323349c-3.0065192 0-5.4437845-2.4420832-5.4437845-5.4545455v-3.2727272c.0018781-7.2291298 5.8502149-13.0890273 13.0650829-13.0909091zm26.2809095 0c.3768841 0 .6824091.3050696.6824091.681392v4.7735796h4.7807043c.1809861 0 .3545595.0717893.482536.1995751s.199873.3011005.199873.4818169v4.0909091c0 .3763224-.3055249.6813921-.682409.6813921h-4.7807043v4.7735795c0 .3763224-.305525.681392-.6824091.681392h-4.0970149c-.3768841 0-.6824091-.3050696-.6824091-.681392v-4.7735795h-4.7807043c-.3768841 0-.682409-.3050697-.682409-.6813921v-4.0909091c0-.3763224.3055249-.681392.682409-.681392h4.7807043v-4.7735796c0-.1807164.0718965-.3540311.199873-.4818169s.30155-.1995751.4825361-.1995751zm-40.716502-3.6363637c1.8670447-.002078 3.6586085.7580883 4.9814274 2.1136401-4.5377578 2.5434796-7.623496 7.1619535-8.3060607 12.4318145h-7.27884839c-1.95204709 0-3.53449391-1.628055-3.53449391-3.6363626v-3.6363625c.00365353-4.0150572 3.16640799-7.2689664 7.06898782-7.2727295zm21.369488-24.5454545c7.0395693 0 12.7462677 5.69819368 12.7462677 12.7272718 0 7.0290781-5.7066984 12.7272737-12.7462677 12.7272737-3.3810758.0018082-6.6241922-1.3385157-9.0149742-3.7257347-2.3907819-2.3872189-3.7331063-5.6255021-3.7312954-9.001539 0-7.02907812 5.7067003-12.7272718 12.7462696-12.7272718zm-25.4925382 7.27272727c4.0226113 0 7.2835821 3.25611093 7.2835821 7.27272723 0 4.0166164-3.2609708 7.2727273-7.2835821 7.2727273-4.02105102-.0037588-7.27981767-3.2576689-7.28358212-7.2727273 0-4.0166163 3.26097078-7.27272723 7.28358212-7.27272723z" fill="url(#g)"/></g></g></g></svg>

<svg xmlns="http://www.w3.org/2000/svg" xmlns:xlink="http://www.w3.org/1999/xlink" width="77" height="78" viewBox="0 0 77 78">
  <defs>
    <path id="additional-users-a" d="M0.5,13.84 C0.5,6.473 6.473,0.5 13.84,0.5 L62.16,0.5 C69.527,0.5 75.5,6.473 75.5,13.84 L75.5,62.16 C75.5,69.527 69.527,75.5 62.16,75.5 L13.84,75.5 C6.473,75.5 0.5,69.527 0.5,62.16 L0.5,13.84 Z"/>
    <linearGradient id="additional-users-c" x1="0%" x2="0%" y1="0%" y2="105.733%">
      <stop offset="0%" stop-color="#3C3F4A"/>
      <stop offset="100%" stop-color="#2A2F45"/>
    </linearGradient>
    <filter id="additional-users-d" width="107.4%" height="107.4%" x="-3.7%" y="-3.7%" filterUnits="objectBoundingBox">
      <feGaussianBlur in="SourceGraphic" stdDeviation=".65"/>
    </filter>
    <linearGradient id="additional-users-e" x1="0%" x2="0%" y1="0%" y2="105.733%">
      <stop offset="0%" stop-color="#2A2F45"/>
      <stop offset="99.285%" stop-color="#1A1F36"/>
    </linearGradient>
    <radialGradient id="additional-users-f" cx="43.055%" cy="18.188%" r="105.675%" fx="43.055%" fy="18.188%" gradientTransform="matrix(.19435 .97148 -.7963 .2371 .492 -.28)">
      <stop offset="0%" stop-color="#FFF"/>
      <stop offset="100%" stop-color="#AEC3EB"/>
    </radialGradient>
    <filter id="additional-users-g" width="106.4%" height="107.8%" x="-3.2%" y="-3.9%" filterUnits="objectBoundingBox">
      <feGaussianBlur in="SourceGraphic" stdDeviation=".65"/>
    </filter>
    <radialGradient id="additional-users-h" cx="32.053%" cy="0%" r="136.287%" fx="32.053%" fy="0%" gradientTransform="matrix(0 1 -.81967 0 .32 -.32)">
      <stop offset="0%" stop-color="#FFF"/>
      <stop offset="100%" stop-color="#AEC3EB"/>
    </radialGradient>
  </defs>
  <g fill="none" fill-rule="evenodd" transform="translate(-6)">
    <mask id="additional-users-b" fill="#fff">
      <use xlink:href="#additional-users-a"/>
    </mask>
    <path d="M0.5,13.84 C0.5,6.473 6.473,0.5 13.84,0.5 L62.16,0.5 C69.527,0.5 75.5,6.473 75.5,13.84 L75.5,62.16 C75.5,69.527 69.527,75.5 62.16,75.5 L13.84,75.5 C6.473,75.5 0.5,69.527 0.5,62.16 L0.5,13.84 Z" mask="url(#additional-users-b)"/>
    <path d="M0.5,13.84 C0.5,6.473 6.473,0.5 13.84,0.5 L62.16,0.5 C69.527,0.5 75.5,6.473 75.5,13.84 L75.5,62.16 C75.5,69.527 69.527,75.5 62.16,75.5 L13.84,75.5 C6.473,75.5 0.5,69.527 0.5,62.16 L0.5,13.84 Z"/>
    <path d="M0.5,13.84 C0.5,6.473 6.473,0.5 13.84,0.5 L62.16,0.5 C69.527,0.5 75.5,6.473 75.5,13.84 L75.5,62.16 C75.5,69.527 69.527,75.5 62.16,75.5 L13.84,75.5 C6.473,75.5 0.5,69.527 0.5,62.16 L0.5,13.84 Z"/>
    <g fill-rule="nonzero" transform="translate(7 1)">
      <path fill="url(#additional-users-c)" stroke="#FFF" stroke-opacity=".01" stroke-width="1.68" d="M37.5,75.5 C58.2106781,75.5 75,58.7106781 75,38 C75,17.2893219 58.2106781,0.5 37.5,0.5 C16.7893219,0.5 0,17.2893219 0,38 C0.019381487,58.7026447 16.7973553,75.4806185 37.5,75.5 Z" filter="url(#additional-users-d)"/>
      <path fill="url(#additional-users-e)" stroke="#FFF" stroke-opacity=".01" stroke-width="1.68" d="M37.5,75.5 C58.2106781,75.5 75,58.7106781 75,38 C75,17.2893219 58.2106781,0.5 37.5,0.5 C16.7893219,0.5 0,17.2893219 0,38 C0.019381487,58.7026447 16.7973553,75.4806185 37.5,75.5 Z"/>
      <g transform="translate(7 11)">
        <path fill="url(#additional-users-f)" d="M28.5735681,28.1818182 C30.9438827,29.3181818 33.5523628,30 36.3423023,30 C37.9583248,29.9905219 39.5650752,29.7545218 41.1158209,29.2988636 C40.4160678,31.2306818 39.971492,33.2840909 39.971492,35.4545455 C39.971492,41.4238636 42.895258,46.6829545 47.3432836,50 L47.3432836,50 L20.0109487,50 C17.0044295,50 14.5671642,47.5579168 14.5671642,44.5454545 L14.5671642,44.5454545 L14.5671642,41.2727273 C14.5690423,34.0435975 20.4173791,28.1837 27.6322471,28.1818182 L27.6322471,28.1818182 Z M54.8544776,28.1818182 C55.2313617,28.1818182 55.5368867,28.4868878 55.5368867,28.8632102 L55.5368867,33.6367898 L60.317591,33.6367898 C60.4985771,33.6367898 60.6721505,33.7085791 60.800127,33.8363649 C60.9281035,33.9641507 61,34.1374654 61,34.3181818 L61,38.4090909 C61,38.7854133 60.6944751,39.090483 60.317591,39.090483 L55.5368867,39.090483 L55.5368867,43.8640625 C55.5368867,44.2403849 55.2313617,44.5454545 54.8544776,44.5454545 L50.7574627,44.5454545 C50.3805786,44.5454545 50.0750536,44.2403849 50.0750536,43.8640625 L50.0750536,39.090483 L45.2943493,39.090483 C44.9174652,39.090483 44.6119403,38.7854133 44.6119403,38.4090909 L44.6119403,34.3181818 C44.6119403,33.9418594 44.9174652,33.6367898 45.2943493,33.6367898 L50.0750536,33.6367898 L50.0750536,28.8632102 C50.0750536,28.6824938 50.1469501,28.5091791 50.2749266,28.3813933 C50.4029031,28.2536075 50.5764766,28.1818182 50.7574627,28.1818182 L54.8544776,28.1818182 Z M14.1379756,24.5454545 C16.0050203,24.5433765 17.7965841,25.3035428 19.119403,26.6590946 C14.5816452,29.2025742 11.495907,33.8210481 10.8133423,39.0909091 L10.8133423,39.0909091 L3.53449391,39.0909091 C1.58244682,39.0909091 0,37.4628541 0,35.4545465 L0,35.4545465 L0,31.818184 C0.00365353321,27.8031268 3.16640799,24.5492176 7.06898782,24.5454545 L7.06898782,24.5454545 Z M35.5074636,0 C42.5470329,0 48.2537313,5.69819368 48.2537313,12.7272718 C48.2537313,19.7563499 42.5470329,25.4545455 35.5074636,25.4545455 C32.1263878,25.4563537 28.8832714,24.1160298 26.4924894,21.7288108 C24.1017075,19.3415919 22.7593831,16.1033087 22.761194,12.7272718 C22.761194,5.69819368 28.4678943,0 35.5074636,0 Z M10.0149254,7.27272727 C14.0375367,7.27272727 17.2985075,10.5288382 17.2985075,14.5454545 C17.2985075,18.5620709 14.0375367,21.8181818 10.0149254,21.8181818 C5.99387438,21.814423 2.73510773,18.5605129 2.73134328,14.5454545 C2.73134328,10.5288382 5.99231406,7.27272727 10.0149254,7.27272727 Z" filter="url(#additional-users-g)"/>
        <path fill="url(#additional-users-h)" d="M28.5735681,28.1818182 C30.9438827,29.3181818 33.5523628,30 36.3423023,30 C37.9583248,29.9905219 39.5650752,29.7545218 41.1158209,29.2988636 C40.4160678,31.2306818 39.971492,33.2840909 39.971492,35.4545455 C39.971492,41.4238636 42.895258,46.6829545 47.3432836,50 L47.3432836,50 L20.0109487,50 C17.0044295,50 14.5671642,47.5579168 14.5671642,44.5454545 L14.5671642,44.5454545 L14.5671642,41.2727273 C14.5690423,34.0435975 20.4173791,28.1837 27.6322471,28.1818182 L27.6322471,28.1818182 Z M54.8544776,28.1818182 C55.2313617,28.1818182 55.5368867,28.4868878 55.5368867,28.8632102 L55.5368867,33.6367898 L60.317591,33.6367898 C60.4985771,33.6367898 60.6721505,33.7085791 60.800127,33.8363649 C60.9281035,33.9641507 61,34.1374654 61,34.3181818 L61,38.4090909 C61,38.7854133 60.6944751,39.090483 60.317591,39.090483 L55.5368867,39.090483 L55.5368867,43.8640625 C55.5368867,44.2403849 55.2313617,44.5454545 54.8544776,44.5454545 L50.7574627,44.5454545 C50.3805786,44.5454545 50.0750536,44.2403849 50.0750536,43.8640625 L50.0750536,39.090483 L45.2943493,39.090483 C44.9174652,39.090483 44.6119403,38.7854133 44.6119403,38.4090909 L44.6119403,34.3181818 C44.6119403,33.9418594 44.9174652,33.6367898 45.2943493,33.6367898 L50.0750536,33.6367898 L50.0750536,28.8632102 C50.0750536,28.6824938 50.1469501,28.5091791 50.2749266,28.3813933 C50.4029031,28.2536075 50.5764766,28.1818182 50.7574627,28.1818182 L54.8544776,28.1818182 Z M14.1379756,24.5454545 C16.0050203,24.5433765 17.7965841,25.3035428 19.119403,26.6590946 C14.5816452,29.2025742 11.495907,33.8210481 10.8133423,39.0909091 L10.8133423,39.0909091 L3.53449391,39.0909091 C1.58244682,39.0909091 0,37.4628541 0,35.4545465 L0,35.4545465 L0,31.818184 C0.00365353321,27.8031268 3.16640799,24.5492176 7.06898782,24.5454545 L7.06898782,24.5454545 Z M35.5074636,0 C42.5470329,0 48.2537313,5.69819368 48.2537313,12.7272718 C48.2537313,19.7563499 42.5470329,25.4545455 35.5074636,25.4545455 C32.1263878,25.4563537 28.8832714,24.1160298 26.4924894,21.7288108 C24.1017075,19.3415919 22.7593831,16.1033087 22.761194,12.7272718 C22.761194,5.69819368 28.4678943,0 35.5074636,0 Z M10.0149254,7.27272727 C14.0375367,7.27272727 17.2985075,10.5288382 17.2985075,14.5454545 C17.2985075,18.5620709 14.0375367,21.8181818 10.0149254,21.8181818 C5.99387438,21.814423 2.73510773,18.5605129 2.73134328,14.5454545 C2.73134328,10.5288382 5.99231406,7.27272727 10.0149254,7.27272727 Z"/>
      </g>
    </g>
  </g>
</svg>
